Numix/16/status/indicator-keyboard-Ku-4.svg

<?xml version="1.0" encoding="UTF-8" standalone="no"?>
<svg
   xmlns:dc="http://purl.org/dc/elements/1.1/"
   xmlns:cc="http://creativecommons.org/ns#"
   xmlns:rdf="http://www.w3.org/1999/02/22-rdf-syntax-ns#"
   xmlns:svg="http://www.w3.org/2000/svg"
   xmlns="http://www.w3.org/2000/svg"
   xmlns:sodipodi="http://sodipodi.sourceforge.net/DTD/sodipodi-0.dtd"
   xmlns:inkscape="http://www.inkscape.org/namespaces/inkscape"
   viewBox="0 0 16 16"
   id="svg2"
   version="1.1"
   inkscape:version="0.91 r13725"
   sodipodi:docname="indicator-keyboard-Ku-4.svg">
  <metadata
     id="metadata14">
    <rdf:RDF>
      <cc:Work
         rdf:about="">
        <dc:format>image/svg+xml</dc:format>
        <dc:type
           rdf:resource="http://purl.org/dc/dcmitype/StillImage" />
      </cc:Work>
    </rdf:RDF>
  </metadata>
  <defs
     id="defs12" />
  <sodipodi:namedview
     pagecolor="#ffffff"
     bordercolor="#666666"
     borderopacity="1"
     objecttolerance="10"
     gridtolerance="10"
     guidetolerance="10"
     inkscape:pageopacity="0"
     inkscape:pageshadow="2"
     inkscape:window-width="640"
     inkscape:window-height="480"
     id="namedview10"
     showgrid="false"
     inkscape:zoom="14.75"
     inkscape:cx="8"
     inkscape:cy="8"
     inkscape:window-x="65"
     inkscape:window-y="24"
     inkscape:window-maximized="0"
     inkscape:current-layer="svg2" />
  <path
     style="fill:#ececec;fill-opacity:1"
     d="M 1.5996094 0 C 0.71320937 2.9605947e-16 0 0.71320937 0 1.5996094 L 0 14.400391 C 2.9605947e-16 15.286791 0.71320937 16 1.5996094 16 L 14.400391 16 C 15.286791 16 16 15.286791 16 14.400391 L 16 1.5996094 C 16 0.71320937 15.286791 0 14.400391 0 L 1.5996094 0 z M 1.6464844 4.859375 L 2.2578125 4.859375 L 2.2578125 7.765625 C 2.4858125 7.561625 2.7376719 7.3284531 3.0136719 7.0644531 C 3.2956719 6.7944531 3.5717969 6.5239062 3.8417969 6.2539062 C 4.1177969 5.9839063 4.3752344 5.7264687 4.6152344 5.4804688 C 4.8552344 5.2344688 5.0474063 5.027375 5.1914062 4.859375 L 5.9296875 4.859375 C 5.7556875 5.045375 5.5448281 5.2673906 5.2988281 5.5253906 C 5.0528281 5.7773906 4.7935781 6.0385937 4.5175781 6.3085938 C 4.2415781 6.5785938 3.9654531 6.845375 3.6894531 7.109375 C 3.4194531 7.367375 3.1749844 7.5949688 2.9589844 7.7929688 C 3.1329844 7.9009687 3.3195781 8.0352656 3.5175781 8.1972656 C 3.7215781 8.3532656 3.9249062 8.5287031 4.1289062 8.7207031 C 4.3389063 8.9067031 4.5441875 9.1044531 4.7421875 9.3144531 C 4.9461875 9.5184531 5.1345938 9.7255469 5.3085938 9.9355469 C 5.4885937 10.145547 5.6471563 10.348875 5.7851562 10.546875 C 5.9291563 10.744875 6.0467187 10.927703 6.1367188 11.095703 L 5.453125 11.095703 C 5.249125 10.783703 5.0177656 10.475922 4.7597656 10.169922 C 4.5077656 9.8639217 4.2409844 9.5746875 3.9589844 9.3046875 C 3.6769844 9.0346875 3.38775 8.7884063 3.09375 8.5664062 C 2.80575 8.3444062 2.5278125 8.1597656 2.2578125 8.0097656 L 2.2578125 11.095703 L 1.6464844 11.095703 L 1.6464844 4.859375 z M 6.953125 6.4433594 L 7.5371094 6.4433594 L 7.5371094 8.8632812 C 7.5371094 9.1932813 7.561375 9.4731719 7.609375 9.7011719 C 7.657375 9.9291721 7.73575 10.115766 7.84375 10.259766 C 7.95175 10.397766 8.0898125 10.498453 8.2578125 10.564453 C 8.4318125 10.624453 8.6407188 10.654297 8.8867188 10.654297 C 9.1627187 10.654297 9.4034219 10.639375 9.6074219 10.609375 C 9.8114219 10.579375 9.9401406 10.553297 9.9941406 10.529297 L 9.9941406 6.4433594 L 10.580078 6.4433594 L 10.580078 10.933594 C 10.406078 10.981594 10.170953 11.035703 9.8769531 11.095703 C 9.5829531 11.155703 9.222875 11.185547 8.796875 11.185547 C 8.448875 11.185547 8.1578281 11.135203 7.9238281 11.033203 C 7.6898281 10.931203 7.5014219 10.787563 7.3574219 10.601562 C 7.2134219 10.415563 7.1089687 10.189781 7.0429688 9.9257812 C 6.9829688 9.6617812 6.953125 9.3707344 6.953125 9.0527344 L 6.953125 6.4433594 z M 13.453125 8.8417969 L 13.851562 8.8417969 L 13.851562 11.486328 L 14.353516 11.486328 L 14.353516 11.796875 L 13.851562 11.796875 L 13.851562 12.896484 L 13.476562 12.896484 L 13.476562 11.796875 L 11.640625 11.796875 L 11.640625 11.5625 C 11.710825 11.3753 11.806841 11.163687 11.931641 10.929688 C 12.060341 10.695688 12.205334 10.456637 12.365234 10.210938 C 12.525134 9.9652374 12.699519 9.7261874 12.886719 9.4921875 C 13.073919 9.2542875 13.262025 9.0367969 13.453125 8.8417969 z M 13.476562 9.2695312 C 13.340063 9.4099312 13.200947 9.5706063 13.060547 9.7539062 C 12.920147 9.9372063 12.786903 10.129225 12.658203 10.328125 C 12.533403 10.523125 12.415841 10.719069 12.306641 10.917969 C 12.197441 11.116869 12.10535 11.306928 12.03125 11.486328 L 13.476562 11.486328 L 13.476562 9.2695312 z "
     id="path4" />
</svg>

<svg xmlns="http://www.w3.org/2000/svg" viewBox="0 0 16 16">
 <path d="m 1.6 0 c -0.886 0 -1.6 0.713 -1.6 1.6 l 0 12.801 c 0 0.886 0.713 1.6 1.6 1.6 l 12.801 0 c 0.886 0 1.6 -0.713 1.6 -1.6 l 0 -12.801 c 0 -0.886 -0.713 -1.6 -1.6 -1.6 l -12.801 0 z m 0.047 4.859 l 0.611 0 l 0 2.906 c 0.228 -0.204 0.48 -0.437 0.756 -0.701 c 0.282 -0.27 0.558 -0.541 0.828 -0.811 c 0.276 -0.27 0.533 -0.527 0.773 -0.773 c 0.24 -0.246 0.432 -0.453 0.576 -0.621 l 0.738 0 c -0.174 0.186 -0.385 0.408 -0.631 0.666 c -0.246 0.252 -0.505 0.513 -0.781 0.783 c -0.276 0.27 -0.552 0.537 -0.828 0.801 c -0.27 0.258 -0.514 0.486 -0.73 0.684 c 0.174 0.108 0.361 0.242 0.559 0.404 c 0.204 0.156 0.407 0.331 0.611 0.523 c 0.21 0.186 0.415 0.384 0.613 0.594 c 0.204 0.204 0.392 0.411 0.566 0.621 c 0.18 0.21 0.339 0.413 0.477 0.611 c 0.144 0.198 0.262 0.381 0.352 0.549 l -0.684 0 c -0.204 -0.312 -0.435 -0.62 -0.693 -0.926 c -0.252 -0.306 -0.519 -0.595 -0.801 -0.865 c -0.282 -0.27 -0.571 -0.516 -0.865 -0.738 c -0.288 -0.222 -0.566 -0.407 -0.836 -0.557 l 0 3.086 l -0.611 0 l 0 -6.236 z m 5.307 1.584 l 0.584 0 l 0 2.42 c 0 0.33 0.024 0.61 0.072 0.838 c 0.048 0.228 0.126 0.415 0.234 0.559 c 0.108 0.138 0.246 0.239 0.414 0.305 c 0.174 0.06 0.383 0.09 0.629 0.09 c 0.276 0 0.517 -0.015 0.721 -0.045 c 0.204 -0.03 0.333 -0.056 0.387 -0.08 l 0 -4.086 l 0.586 0 l 0 4.49 c -0.174 0.048 -0.409 0.102 -0.703 0.162 c -0.294 0.06 -0.654 0.09 -1.08 0.09 c -0.348 0 -0.639 -0.05 -0.873 -0.152 c -0.234 -0.102 -0.422 -0.246 -0.566 -0.432 c -0.144 -0.186 -0.248 -0.412 -0.314 -0.676 c -0.06 -0.264 -0.09 -0.555 -0.09 -0.873 l 0 -2.609 z m 6.5 2.398 l 0.398 0 l 0 2.645 l 0.502 0 l 0 0.311 l -0.502 0 l 0 1.1 l -0.375 0 l 0 -1.1 l -1.836 0 l 0 -0.234 c 0.07 -0.187 0.166 -0.399 0.291 -0.633 c 0.129 -0.234 0.274 -0.473 0.434 -0.719 c 0.16 -0.246 0.334 -0.485 0.521 -0.719 c 0.187 -0.238 0.375 -0.455 0.566 -0.65 z m 0.023 0.428 c -0.136 0.14 -0.276 0.301 -0.416 0.484 c -0.14 0.183 -0.274 0.375 -0.402 0.574 c -0.125 0.195 -0.242 0.391 -0.352 0.59 c -0.109 0.199 -0.201 0.389 -0.275 0.568 l 1.445 0 l 0 -2.217 z" style="fill:#ececec;fill-opacity:1"/>
</svg>
